X:1
T:The Young Sailor Lad
M:4/4
L:1/8
K:F
 C| F2 GAB-G c3/2 A/2| F2 F3/2 G/2 F2 z c|f-d fd c2d/2-c/2 A| G2 AB c2|\
 c2| f2 df c2d/2-c/2 A| G2 AB c2 c2| FF GAB-G cA| F2 F3/2 G/2 F2||\
